src/static/logos/eager.svg

<?xml version="1.0" encoding="UTF-8" standalone="no"?>
<svg width="256px" height="113px" viewBox="0 0 256 113" version="1.1" xmlns="http://www.w3.org/2000/svg" xmlns:xlink="http://www.w3.org/1999/xlink" preserveAspectRatio="xMidYMid">
    <defs>
        <linearGradient x1="48.1388846%" y1="0%" x2="51.8611154%" y2="100%" id="linearGradient-1">
            <stop stop-color="#261DDB" offset="0%"></stop>
            <stop stop-color="#FA015D" offset="100%"></stop>
        </linearGradient>
    </defs>
    <g fill-rule="evenodd">
        <path d="M233.516683,15.6623376 C239.230289,15.6623376 243.378772,20.1915744 242.907156,25.9146833 L241.863149,38.583835 C241.391534,44.3069437 236.496583,48.8361806 230.782976,48.8361806 L224.365802,48.8361806 L227.082973,15.6623376 L233.516683,15.6623376 L233.516683,15.6623376 Z M247.48926,57.7927007 C247.93133,58.3769532 248.344228,58.9809851 248.726754,59.602977 C251.219507,63.6562193 252.422544,68.4721366 252.004327,73.547224 L248.924716,110.918678 L234.651138,110.918678 L237.730751,73.547224 C238.202366,67.8241152 234.053883,63.2948784 228.340277,63.2948784 L221.915403,63.285471 L217.990166,110.918678 L203.716589,110.918678 L212.46906,4.70641178 L212.73111,1.52640382 L215.905839,1.52640382 L233.430337,1.52640382 C246.917486,1.52640382 257.029475,12.5664859 255.916211,26.0760652 L254.872202,38.7452169 C254.461866,43.7247162 252.525757,48.5011884 249.492025,52.4944556 C249.18003,52.9051302 248.856427,53.3075214 248.52168,53.7009981 C248.386532,53.859857 248.249568,54.017263 248.110818,54.1731745 C247.705684,54.6229542 247.428906,54.9165334 247.145726,55.2041903 C246.735043,55.6213662 246.330414,55.9954258 246.184774,56.1285568 C246.685104,56.750543 246.679074,56.7615277 247.170471,57.3811873 C247.278358,57.5172342 247.384626,57.6544134 247.48926,57.7927007 L247.48926,57.7927007 L247.48926,57.7927007 Z M204.153607,1.52640382 L200.978879,1.52640382 L168.063299,1.52640382 L164.888571,1.52640382 L164.626521,4.70641178 L156.136099,107.73867 L155.874049,110.918678 L159.048777,110.918678 L193.183452,110.918678 L196.358181,110.918678 L196.620231,107.73867 L197.274308,99.8013698 L197.536358,96.6213618 L194.36163,96.6213618 L171.30785,96.6086416 L174.040508,63.4475187 L189.323602,63.4475187 L192.49833,63.4475187 L192.76038,60.2675107 L193.427035,52.1775707 L193.689085,48.9975627 L190.514357,48.9975627 L175.252143,48.9747724 L177.991452,15.8237196 L199.800702,15.8237196 L202.97543,15.8237196 L203.23748,12.6437116 L203.891557,4.70641178 L204.153607,1.52640382 L204.153607,1.52640382 Z M152.364899,53.0425328 L126.20514,53.0425328 L125.026963,67.3398486 L136.91428,67.3260684 L135.086001,89.512449 C134.658454,94.2676578 130.437723,98.1477562 125.662944,98.1477657 C120.863665,98.1477657 117.274416,94.2290903 117.670562,89.4218237 L123.142167,23.0232576 C123.538312,18.2159911 127.773401,14.2973158 132.572686,14.2973158 C137.371971,14.2973158 140.961219,18.2159911 140.565074,23.0232576 L139.189306,39.7183612 L153.598827,38.0686709 L154.838651,23.0232576 C155.889022,10.2768802 146.476077,0 133.750863,0 C121.025649,0 109.918961,10.2768802 108.86859,23.0232576 L103.396984,89.4218237 C102.346613,102.168201 111.759559,112.445081 124.484773,112.445081 C137.211999,112.44362 148.317098,102.167186 149.367386,89.4218107 L152.364899,53.0425328 L152.364899,53.0425328 Z M79.4683164,33.8177594 L81.9570409,70.2145757 L70.911633,70.2145757 C70.911633,70.2145757 70.9001733,70.2449941 71.2705848,68.6701995 L79.4683164,33.8177594 L79.4683164,33.8177594 Z M45.9960224,110.918678 L60.3493144,110.918678 L66.4925878,84.5118914 L81.915022,84.5324435 L83.8518972,110.918678 L98.1896167,110.918678 L90.5394034,1.52640382 L71.6752794,1.52640382 L45.9960224,110.918678 L45.9960224,110.918678 Z M48.2795579,1.52640382 L45.1048298,1.52640382 L12.1892498,1.52640382 L9.01452181,1.52640382 L8.75247175,4.70641178 L0.262050052,107.73867 L-7.10542736e-15,110.918678 L3.174728,110.918678 L37.3094034,110.918678 L40.4841316,110.918678 L40.7461817,107.73867 L41.4002586,99.8013698 L41.6623087,96.6213618 L38.4875806,96.6213618 L15.4338013,96.6086416 L18.1664592,63.4475187 L33.4495527,63.4475187 L36.6242806,63.4475187 L36.8863306,60.2675107 L37.5529859,52.1775707 L37.815036,48.9975627 L34.6403081,48.9975627 L19.3780938,48.9747724 L22.1174027,15.8237196 L43.9266527,15.8237196 L47.1013808,15.8237196 L47.3634309,12.6437116 L48.0175079,4.70641178 L48.2795579,1.52640382 L48.2795579,1.52640382 Z" fill="url(#linearGradient-1)"></path>
    </g>
</svg>

<svg width="256" height="113" xmlns="http://www.w3.org/2000/svg" preserveAspectRatio="xMidYMid"><defs><linearGradient x1="48.139%" y1="0%" x2="51.861%" y2="100%" id="a"><stop stop-color="#261DDB" offset="0%"/><stop stop-color="#FA015D" offset="100%"/></linearGradient></defs><path d="M233.517 15.662c5.713 0 9.862 4.53 9.39 10.253l-1.044 12.669c-.471 5.723-5.366 10.252-11.08 10.252h-6.417l2.717-33.174h6.434zm13.972 42.13c.442.585.855 1.189 1.238 1.811 2.493 4.053 3.696 8.87 3.277 13.944l-3.08 37.372h-14.273l3.08-37.372c.471-5.723-3.677-10.252-9.39-10.252l-6.426-.01-3.925 47.634h-14.273l8.752-106.213.262-3.18h20.699c13.487 0 23.6 11.04 22.486 24.55l-1.044 12.67c-.41 4.979-2.346 9.755-5.38 13.748a28.037 28.037 0 01-2.346 2.71c-.411.417-.816.791-.961.925.5.622.494.633.985 1.252.108.136.215.273.32.412zM204.154 1.527h-39.265l-.262 3.18-8.49 103.033-.263 3.18h40.484l.262-3.18.654-7.938.262-3.18h-3.174l-23.054-.012 2.733-33.161h18.457l.262-3.18.667-8.09.262-3.18h-3.175l-15.262-.023 2.74-33.151h24.983l.262-3.18.655-7.938.262-3.18zm-51.79 51.517h-26.159l-1.178 14.297 11.887-.014-1.828 22.186c-.428 4.756-4.648 8.636-9.423 8.636-4.8 0-8.389-3.919-7.992-8.726l5.471-66.399c.396-4.807 4.631-8.726 9.43-8.726 4.8 0 8.39 3.919 7.993 8.726l-1.376 16.695 14.41-1.65 1.24-15.045C155.889 10.277 146.476 0 133.75 0c-12.725 0-23.832 10.277-24.882 23.023l-5.472 66.399c-1.05 12.746 8.363 23.023 21.088 23.023 12.727-.001 23.832-10.278 24.882-23.023l2.998-36.38zM79.469 33.818l2.489 36.397H70.912s-.012.03.359-1.545l8.197-34.852zm-33.472 77.1H60.35l6.144-26.406 15.422.02 1.937 26.387H98.19L90.54 1.526H71.674L45.996 110.92zM48.28 1.527H9.015l-.263 3.18L.262 107.74 0 110.919h40.484l.262-3.18.654-7.938.262-3.18h-3.174l-23.054-.012 2.732-33.161h18.458l.262-3.18.667-8.09.262-3.18H34.64l-15.262-.023 2.74-33.151H47.1l.262-3.18.655-7.938.262-3.18z" fill="url(#a)" fill-rule="evenodd"/></svg>
